X:1
T:Title
%%score { 1 | 2 }
L:1/8
M:4/4
K:Bb
V:1 treble nm="Grand Piano"
V:2 bass 
V:1
 z4 z2[Q:1/4=100] [DF]2 | [DF]3 [_D=E] [=DF]2 [Fd]2 | [Fc]2 [FB]2 G2 B2 | F3 B B2 [Fd]2 | %4
[M:7/8] d2 c2 c3 |[M:1/4] F2 |[M:4/4] [DF]3 [_D=E] [=DF]2 d2 | c2 d2 [Ge]2 c2 | B3 F c3 F | %9
[M:3/4] [DB]6 |[M:1/4] [DF]2 |[M:4/4] [DF]3 [DB] [Fd]3 [FB] | c2 B2 G3 G | %13
 [DF]2 [DB]2 [Fd]2 [FB]2 |[M:7/8] d2 c2 c3 |[M:1/4] F2 |[M:4/4] [DF]3 [_D=E] [=DF]2 d2 | %17
 c2 d2 [Ge]2 c2 | B3 F c3 F |[M:7/4] [DB]6 z2 z2 z4 |] %20
V:2
 z4 z2 [B,,B,]2 | [B,,B,]3 [B,,B,] [B,,B,]2 [B,,B,]2 | [C,A,]2 [D,B,]2 [E,B,E]2 [E,B,E]2 | %3
 [B,D]3 [G,B,D] [G,B,D]2 [D,B,]2 |[M:7/8] [F,B,F]2 [F,A,F]2 [F,A,E]3 |[M:1/4] [F,A,E]2 | %6
[M:4/4] [B,,B,]3 [B,,B,] [B,,B,]2[K:treble] [B,F]2 | [A,CF]2 [B,F]2[K:bass] [E,B,]2 [E,B,E]2 | %8
 [F,B,D]3 [F,B,D] [F,A,E]3 [F,A,E] |[M:3/4] [B,,B,]6 |[M:1/4] [B,,B,]2 | %11
[M:4/4] [B,,B,]3 [B,,F,] [B,,B,]3 [D,B,] | [E,G,E]2 [E,G,E]2 [E,B,E]3 [E,B,E] | %13
 [B,,B,]2 [B,,F,]2 [B,,B,]2 [D,B,]2 |[M:7/8] [F,B,F]2 [F,A,F]2 [F,A,E]3 |[M:1/4] [F,A,E]2 | %16
[M:4/4] [B,,B,]3 [B,,B,] [B,,B,]2[K:treble] [B,F]2 | [A,CF]2 [B,F]2[K:bass] [E,B,]2 [E,B,E]2 | %18
 [F,B,D]3 [F,B,D] [F,A,E]3 [F,A,E] |[M:7/4] [B,,B,]6 z2 z2 z4 |] %20

